X:1
T:Peck o' Maut
M:4/4
L:1/8
K:D
 z4 z2 F3/2- G/2| A2 d3/2- B/2 B3/2- A/2 G3/2- F/2| B3 ed-cB-A| A3 B A3/2- F/2 E3/2- D/2|\
 F2 E3/2- F/2 E2 F3/2- G/2| A2d-BB-AG-F| B2 e3/2- d/2d-cB-A| d2 c3/2- B/2 A2c/2-B/2-A/2-G/2|\
 F2 E3/2- F/2 D3 f| e3/2- d/2 c3/2- B/2 B3/2- A/2 G3/2- F/2| B3/2- A/2 B3/2- d/2 G/2- F3/2 E3/2- D/2|\
 G3/2- F/2 G3/2- B/2 A/2- F3/2E-D| F2 E3/2- F/2 E2 f3/2- g/2| a/2- f3/2 d3/2- f/2 B3 d|\
B/2-A/2-G/2-F/2A-c d3 B| A/2- F3/2 E3/2- D/2 E3/2- F/2 G3/2- B/2| F2 E3/2- F/2 D2 z2|\
